!!!OTL: Baobao yao shuijiao
!!!ARE: Asia, China,ÿJiangxi, Buoyang
!! IV, 264
!!!SCT: C1694
!!!YEM: Copyright 1995, estate of Helmut Schaffrath.
**kern
*ICvox
*Ivox
*M2/4
*k[f#]
*G:
{4dd
4b
=1
[2a
=2
4a]
8e
8r
=3
4.r}
{16d
16e
=4
8g
8e
8g
8e
=5
8g
8b
[4a
=6
4a]
8e
8r
=7
2r}
=8
{4dd
8dd
8b
=9
4b
4b
=10
4a
[4a
=11
4a]
8e
8r}
=12
{4d
8e
8g
=13
8.g
16e
16g
16a
8b
=14
[2a
=15
4a]
8e
8r}
=16
{4b
4dd
=17
8.b
16a
8a
16e
16g
=18
8.e
16d
[4d
=19
4d]}
{8d
8e
=20
8g
8e
16g
16a
8b
=21
[2a
=22
4a]
8e
8r
=23
2r}
=24
{4dd
8dd
8b
=25
8b
8a
4g
=26
4b
[4a
=27
4a]
8g
8e}
=28
{4d
8e
8g
=29
4a
8a
16g
16a
=30
8e
8d
[4d
=31
4d]}
{8d
8e
=32
8g
8e
8e
8a
=33
4a
8a
8g
=34
4e
[4g
=35
4g]
8b
8e}
=36
{4d
8e
8a
=37
4a
8a
16e
16g
=38
16e
16d
[4.d
=39
2d]}
==
!!!AGN: Xiaodiao, Yaoerge
!!!AMT: simple duple
!!!AIN: vox
!!!EED: Helmut Schaffrath
!!!EEV: 1.0
*-
!!!ONB: Tied note syntax fixed by Craig Sapp, 2004/05/03/
